X: 20152
T: Le PONT NEUF
Q: "In the style of a waltz."
%R: waltz
B: W. Hamilton "Universal Tune-Book" Vol. 2 Glasgow 1846 p.15 #2
S: http://s3-eu-west-1.amazonaws.com/itma.dl.printmaterial/book_pdfs/hamiltonvol2web.pdf
Z: 2016 John Chambers <jc:trillian.mit.edu>
M: 3/4
L: 1/8
K: A
% - - - - - - - - - - - - - - - - - - - - - - - - -
(EA) |\
c4(dc) | (cB)(B^A)(Bc) | B4(cB) | (BA)(AGAB) |\
c4dc | (cB)(B^A)(Be) | f3edB | A4 :|
|: Ee |\
e4(fe) | (ed)(dc)d2 | b3ged | (dc)(cB)c2 |\
a3edc | cBB^AB2 | f3edB | A4 :|
% - - - - - - - - - - - - - - - - - - - - - - - - -

%%sep 1 1 500
%%sep 1 1 500

